X:142
T:Trip to London. VWMLa.142
%%VWML:Anon2-3049-p83-0
F:http://www.vwml.org/record/Anon2/3049/p83
S:Anon. MS, late 18thC, Vaughan Williams Mem. Library
O:England;Yorkshire
Z:vmp/efdss.Simon Wilson. Reviewed PJH 2008.
M:6/8
L:1/8
Q:3/8=120
K:D
d3 afd|e2e e2f|egf edc|dAG FED|\
d3 afd|e2e e2f|egf edc|d3 D3:|
|:A3 !turn!(BAB)|A2G F2A|G2F E2D|A3 A,3|\
A3 !turn!(BAB)|A2G F2d|(e/f/g).f edc|d3 D3:|
